src/static/logos/kickstarter.svg

<?xml version="1.0" encoding="UTF-8" standalone="no"?>
<svg width="256px" height="256px" viewBox="0 0 256 256" version="1.1" xmlns="http://www.w3.org/2000/svg" xmlns:xlink="http://www.w3.org/1999/xlink" preserveAspectRatio="xMidYMid">
	<g>
		<path d="M240.67075,256 L15.3292495,256 C6.86290501,256 0,249.135521 0,240.670659 L0,15.3293413 C0,6.86294611 6.86290501,0 15.3292495,0 L240.67075,0 C249.135562,0 256,6.86294611 256,15.3293413 L256,240.670659 C256,249.135521 249.135562,256 240.67075,256" fill="#161D15"></path>
		<path d="M116.890891,105.512348 L142.491847,68.421175 C147.332087,61.433116 153.57973,57.9390865 161.240895,57.9390865 C167.490068,57.9390865 172.896329,60.1557453 177.468857,64.5905927 C182.036796,69.0254401 184.320765,74.333795 184.320765,80.5156571 C184.320765,85.0851257 183.113764,89.1176396 180.693644,92.6116691 L157.610714,126.175157 L185.833723,161.956834 C188.656176,165.518174 190.066638,169.685309 190.066638,174.45518 C190.066638,180.773193 187.851509,186.196282 183.415132,190.732095 C178.980285,195.269438 173.60156,197.53505 167.288136,197.53505 C160.365858,197.53505 155.092688,195.286266 151.462508,190.782578 L116.890891,147.644164 L116.890891,171.432324 C116.890891,178.219981 115.716016,183.493151 113.363206,187.256423 C109.06298,194.108331 102.813807,197.53505 94.6172176,197.53505 C87.1579847,197.53505 81.3769262,195.015494 77.2801613,189.976381 C73.4495791,185.339602 71.5358177,179.189865 71.5358177,171.53329 L71.5358177,83.3381109 C71.5358177,76.0808097 73.4817046,70.102409 77.3811272,65.3983193 C81.4794218,60.4265173 87.1227996,57.9390865 94.3127903,57.9390865 C101.167758,57.9390865 106.878446,60.4265173 111.447915,65.3983193 C114.001126,68.1519328 115.61352,70.9407313 116.285096,73.7631851 C116.688959,75.5117296 116.890891,78.7686424 116.890891,83.5400426 L116.890891,105.512348" fill="#2CDF72"></path>
	</g>
</svg>

<svg width="256" height="256" xmlns="http://www.w3.org/2000/svg" preserveAspectRatio="xMidYMid"><path d="M240.67 256H15.33C6.862 256 0 249.136 0 240.67V15.33C0 6.862 6.863 0 15.33 0h225.34C249.137 0 256 6.863 256 15.33v225.34c0 8.466-6.864 15.33-15.33 15.33" fill="#161D15"/><path d="M116.89 105.512l25.602-37.09c4.84-6.989 11.088-10.483 18.749-10.483 6.25 0 11.655 2.217 16.228 6.652 4.568 4.434 6.852 9.743 6.852 15.925 0 4.57-1.207 8.602-3.627 12.096l-23.083 33.563 28.223 35.782c2.822 3.561 4.233 7.728 4.233 12.498 0 6.318-2.215 11.741-6.652 16.277-4.435 4.537-9.813 6.803-16.127 6.803-6.922 0-12.195-2.249-15.825-6.752l-34.572-43.139v23.788c0 6.788-1.175 12.061-3.528 15.824-4.3 6.852-10.55 10.28-18.746 10.28-7.459 0-13.24-2.52-17.337-7.56-3.83-4.636-5.744-10.786-5.744-18.443V83.338c0-7.257 1.946-13.236 5.845-17.94 4.098-4.971 9.742-7.459 16.932-7.459 6.855 0 12.565 2.488 17.135 7.46 2.553 2.753 4.166 5.542 4.837 8.364.404 1.749.606 5.006.606 9.777v21.972" fill="#2CDF72"/></svg>
